X: 3814
T: Black Cat, The
R: jig
M: 6/8
K: Dminor
c|:d2D DEF|ABA E2F|~G3 GFE|A,^CE GFE|
DdA DEF|ABA E2F|~G3 A,^CE|GFE D2c:|
|:d2e ~f3|e^cA A^ce|~g3 gfe|g/a/ba gfe|
d2e ~f3|ea^g a3|A^ce A^ce|1 gfe d2A:|2 gfe d2c||

